X: 1
T: The Banks Of Lough Gowna
R: Jig
M: 6/8
L: 1/8
K: Bmin
|:BcB BAF|FEF DFA|BcB BAF|d2e fed|
BcB BAF|FEF DFA|def geg| fdB B3:|
|:def a3|afb afe|dFA def|geg fdB|
def a3|afb afe|def geg| fdB B3:|
    